modules/ui/src/assets/svg/arrow.svg

<svg width="16" height="16" viewBox="0 0 16 16" fill="none" xmlns="http://www.w3.org/2000/svg">
<path d="M7.46967 4.73297C7.76256 4.44008 8.23744 4.44008 8.53033 4.73297L13.3033 9.50594C13.5962 9.79884 13.5962 10.2737 13.3033 10.5666C13.0104 10.8595 12.5355 10.8595 12.2426 10.5666L8 6.32396L3.75736 10.5666C3.46447 10.8595 2.98959 10.8595 2.6967 10.5666C2.40381 10.2737 2.40381 9.79884 2.6967 9.50594L7.46967 4.73297ZM7.25 5.82471V5.2633H8.75V5.82471H7.25Z" fill="#11304E"/>
</svg>

<svg xmlns="http://www.w3.org/2000/svg" fill="black" width="16" height="16">
  <path d="M7.47 4.733a.75.75 0 0 1 1.06 0l4.773 4.773a.75.75 0 1 1-1.06 1.06L8 6.325l-4.243 4.243a.75.75 0 1 1-1.06-1.061L7.47 4.733Zm-.22 1.092v-.562h1.5v.562h-1.5Z"/>
</svg>
